X:96
T:Au renouviau
R:Danse XIIIe
O:France
A:Provence
Z:Transcrit et/ou corrigé par B@D - 2005-03-26
Z:Pour toute observation mailto:-@-
M:2
L:1/8
P:ABACABACA
K:C
P:A
d>c d>e | f>g e>f (3edc d>e |1 A2 Az :|2 d2 d>c | |:
P:B
d>e e>f | d>c d>e |1 d2d>c :|2 d2d2  ||
P:C
d>a a>f | g>f e>e | d>a a>f | g>f  e>e | d>c d>e | d2 d2 |]




%%header "$P0	 $IR 	$P1"
%%footer $D - Éditions Galouvielle - 2009 - À usage librement privé dans le cadre familial

